src/svg/resizeright.svg

<?xml version="1.0" encoding="UTF-8" standalone="no"?>
<svg width="35px" height="35px" viewBox="0 0 35 35" version="1.1" xmlns="http://www.w3.org/2000/svg" xmlns:xlink="http://www.w3.org/1999/xlink">
    <defs></defs>
    <g id="Page-1" stroke="none" stroke-width="1" fill="none" fill-rule="evenodd">
        <g id="resizeright">
            <g id="bg-copy" fill="#FFFFFF" opacity="0.00999999978">
                <rect id="bg" x="0" y="0" width="35" height="35"></rect>
            </g>
            <path d="M13.0005,9 L13.0005,25 L16.9805,25 L16.9805,18.994 L18.0395,18.994 L18.0395,22.461 L24.0005,16.988 L18.0395,11.527 L18.0395,15.005 L16.9805,15.005 L16.9805,9 L13.0005,9 Z" id="resize-border" fill="#FFFFFF"></path>
            <path d="M16,23.9805 L16,17.9805 L19.02,17.9805 L19.02,20.2405 L22.34,16.9885 L19.02,13.7655 L19.02,16.0195 L16,16.0195 L16,10.0195 L14.02,10.0195 L14.02,23.9805 L16,23.9805 Z" id="resize" fill="#000000"></path>
        </g>
    </g>
</svg>

<svg height="35" viewBox="0 0 35 35" width="35" xmlns="http://www.w3.org/2000/svg"><g fill="none" fill-rule="evenodd"><path d="m13.0005 9v16h3.98v-6.006h1.059v3.467l5.961-5.473-5.961-5.461v3.478h-1.059v-6.005z" fill="#fff"/><path d="m16 23.9805v-6h3.02v2.26l3.32-3.252-3.32-3.223v2.254h-3.02v-6h-1.98v13.961z" fill="#000"/></g></svg>
